svg/food/cookie_man_line.svg

<?xml version="1.0" encoding="UTF-8"?>
<svg width="24px" height="24px" viewBox="0 0 24 24" version="1.1" xmlns="http://www.w3.org/2000/svg" xmlns:xlink="http://www.w3.org/1999/xlink">
    <title>cookie_man_line</title>
    <g id="Icon" stroke="none" stroke-width="1" fill="none" fill-rule="evenodd">
        <g id="Food" transform="translate(-720.000000, 0.000000)" fill-rule="nonzero">
            <g id="cookie_man_line" transform="translate(720.000000, 0.000000)">
                <path d="M24,0 L24,24 L0,24 L0,0 L24,0 Z M12.5935,23.2578 L12.5819,23.2595 L12.5109,23.295 L12.4919,23.2987 L12.4767,23.295 L12.4057,23.2595 C12.3958,23.2564 12.387,23.259 12.3821,23.2649 L12.378,23.2758 L12.3609,23.7031 L12.3659,23.7235 L12.3769,23.7357 L12.4805,23.8097 L12.4953,23.8136 L12.5071,23.8097 L12.6107,23.7357 L12.6233,23.7197 L12.6267,23.7031 L12.6096,23.2758 C12.6076,23.2657 12.601,23.2593 12.5935,23.2578 Z M12.8584,23.1453 L12.8445,23.1473 L12.6598,23.2397 L12.6499,23.2499 L12.6472,23.2611 L12.6651,23.6906 L12.6699,23.7034 L12.6784,23.7105 L12.8793,23.8032 C12.8914,23.8069 12.9022,23.803 12.9078,23.7952 L12.9118,23.7812 L12.8777,23.1665 C12.8753,23.1546 12.8674,23.147 12.8584,23.1453 Z M12.143,23.1473 C12.1332,23.1424 12.1222,23.1453 12.1156,23.1526 L12.1099,23.1665 L12.0758,23.7812 C12.0751,23.7927 12.0828,23.8019 12.0926,23.8046 L12.1083,23.8032 L12.3092,23.7105 L12.3186,23.7024 L12.3225,23.6906 L12.3404,23.2611 L12.3372,23.2485 L12.3278,23.2397 L12.143,23.1473 Z" id="MingCute"></path>
                <path d="M12,2 C14.2091,2 16,3.79086 16,6 C16,6.21775 15.9825,6.43148 15.949,6.63985 L16.1554,6.58455 C17.7558,6.15573 19.4008,7.10548 19.8296,8.70587 C20.2584,10.3063 19.3087,11.9513 17.7083,12.3801 L16,12.8378 L16,13.5982 L17.848,16.7991 C18.6765,18.234 18.1849,20.0688 16.75,20.8972 C15.3151,21.7256 13.4803,21.234 12.6519,19.7991 L12,18.6699 L11.3481,19.7991 C10.5196,21.234 8.68486,21.7256 7.24998,20.8972 C5.8151,20.0687 5.32347,18.234 6.1519,16.7991 L7.99997,13.5981 L7.99997,12.8378 L6.29167,12.3801 C4.69127,11.9513 3.74152,10.3063 4.17035,8.70587 C4.59918,7.10547 6.24419,6.15572 7.84458,6.58455 L8.05096,6.63985 C8.01741,6.43148 7.99997,6.21775 7.99997,6 C7.99997,3.79086 9.79083,2 12,2 Z M12,4 C10.8954,4 9.99997,4.89543 9.99997,6 C9.99997,6.57305 10.2397,7.08849 10.6271,7.45441 C10.96,7.76882 11.0368,8.2692 10.8136,8.669 C10.5903,9.0688 10.124,9.26587 9.68167,9.14735 L7.32695,8.5164 C6.79348,8.37346 6.24514,8.69004 6.1022,9.22351 C5.95926,9.75697 6.27584,10.3053 6.80931,10.4483 L9.25879,11.1046 C9.69597,11.2217 9.99997,11.6179 9.99997,12.0705 L9.99997,13.8661 C9.99997,14.0416 9.95376,14.2141 9.86599,14.3661 L7.88395,17.7991 C7.60781,18.2774 7.77169,18.889 8.24998,19.1651 C8.72827,19.4412 9.33986,19.2774 9.616,18.7991 L10.9434,16.5 C11.122,16.1906 11.4521,16 11.8094,16 L12.1905,16 C12.5478,16 12.8779,16.1906 13.0565,16.5 L14.3839,18.7991 C14.6601,19.2774 15.2717,19.4413 15.75,19.1651 C16.2283,18.889 16.3921,18.2774 16.116,17.7991 L14.1339,14.3661 C14.0462,14.2141 14,14.0416 14,13.8661 L14,12.0705 C14,11.6179 14.304,11.2217 14.7411,11.1046 L17.1906,10.4483 C17.7241,10.3053 18.0407,9.75698 17.8977,9.22351 C17.7548,8.69005 17.2065,8.37346 16.673,8.51641 L14.3183,9.14736 C13.8759,9.26587 13.4096,9.06881 13.1864,8.66901 C12.9631,8.2692 13.0399,7.76883 13.3728,7.45441 C13.7603,7.0885 14,6.57305 14,6 C14,4.89543 13.1045,4 12,4 Z M12,13 C12.5523,13 13,13.4477 13,14 C13,14.5523 12.5523,15 12,15 C11.4477,15 11,14.5523 11,14 C11,13.4477 11.4477,13 12,13 Z M12,10 C12.5523,10 13,10.4477 13,11 C13,11.5523 12.5523,12 12,12 C11.4477,12 11,11.5523 11,11 C11,10.4477 11.4477,10 12,10 Z" id="形状" fill="#09244B"></path>
            </g>
        </g>
    </g>
</svg>

<svg xmlns="http://www.w3.org/2000/svg" width="24" height="24"><g fill="none" fill-rule="nonzero"><path d="M24 0v24H0V0h24ZM12.594 23.258l-.012.002-.071.035-.02.004-.014-.004-.071-.036c-.01-.003-.019 0-.024.006l-.004.01-.017.428.005.02.01.013.104.074.015.004.012-.004.104-.074.012-.016.004-.017-.017-.427c-.002-.01-.009-.017-.016-.018Zm.264-.113-.014.002-.184.093-.01.01-.003.011.018.43.005.012.008.008.201.092c.012.004.023 0 .029-.008l.004-.014-.034-.614c-.003-.012-.01-.02-.02-.022Zm-.715.002a.023.023 0 0 0-.027.006l-.006.014-.034.614c0 .012.007.02.017.024l.015-.002.201-.093.01-.008.003-.011.018-.43-.003-.012-.01-.01-.184-.092Z"/><path fill="#09244B" d="M12 2a4 4 0 0 1 3.949 4.64l.206-.055a3 3 0 1 1 1.553 5.795L16 12.838v.76l1.848 3.201a3 3 0 1 1-5.196 3L12 18.67l-.652 1.13a3 3 0 0 1-5.196-3L8 13.6v-.761l-1.708-.458a3 3 0 1 1 1.553-5.795l.206.055A4 4 0 0 1 12 2Zm0 2a2 2 0 0 0-1.373 3.454 1 1 0 0 1-.945 1.693l-2.355-.63a1 1 0 1 0-.518 1.931l2.45.657a1 1 0 0 1 .741.965v1.796a1 1 0 0 1-.134.5L7.884 17.8a1 1 0 1 0 1.732 1l1.327-2.299a1 1 0 0 1 .866-.5h.382a1 1 0 0 1 .865.5l1.328 2.3a1 1 0 0 0 1.732-1l-1.982-3.434a1 1 0 0 1-.134-.5V12.07a1 1 0 0 1 .741-.965l2.45-.657a1 1 0 0 0-.518-1.932l-2.355.631a1 1 0 0 1-.945-1.693A2 2 0 0 0 12 4Zm0 9a1 1 0 1 1 0 2 1 1 0 0 1 0-2Zm0-3a1 1 0 1 1 0 2 1 1 0 0 1 0-2Z"/></g></svg>
